X: 1
T: No Fixed Abode
M: 2/4
L: 1/8
R: polka
K: Dmin
D>E FD | D>E FD | D>E FD | AG FE |
D>E FD | D>E FD | A,D A,D | B,D CE :|
d>c dA | Bf eB | c>B cA | Gd ce |
d>c dA | Bf eB | c>B cA | GF ED :|
